!!!COM:	Bach, Johann Sebastian
!!!CDT:	1685/02/21/-1750/07/28/
!!!OTL@@DE:	O Welt, sieh hier dein Leben
!!!SCT:	BWV 393
!!!PC#:	275
!!!AGN:	chorale
**kern	**kern	**kern	**kern
*ICvox	*ICvox	*ICvox	*ICvox
*Ibass	*Itenor	*Ialto	*Isoprn
*I"Bass	*I"Tenor	*I"Alto	*I"Soprano
*clefF4	*clefGv2	*clefG2	*clefG2
*k[f#c#g#]	*k[f#c#g#]	*k[f#c#g#]	*k[f#c#g#]
*A:	*A:	*A:	*A:
*M4/4	*M4/4	*M4/4	*M4/4
*met(c)	*met(c)	*met(c)	*met(c)
*MM100	*MM100	*MM100	*MM100
4E#	4c#	4g#	4cc#
=1	=1	=1	=1
4F#	4c#	4f#	4a
4G#	4B	4enX	4b
4A	4A	4e	8cc#L
.	.	.	8ddJ
4C#	4A	4e	4ee
=2	=2	=2	=2
4BB	4A	4f#	2dd
4E	4G#	4e	.
4AA;	4A;	4e;	4cc#;
4A	4e	4a	8cc#L
.	.	.	8ddJ
=3	=3	=3	=3
4C#	4e	8aL	4ee
.	.	8g#J	.
8C#L	4e	4a	4ee
8DJ	.	.	.
4E	4e	8g#L	4b
.	.	[8f#J	.
4C#	4G#	8f#L]	4cc#
.	.	8eJ	.
=4	=4	=4	=4
2F#	8F#L	4e	2a
.	8G#J	.	.
.	4A	4d#	.
4E;	4B;	4e;	4g#;
4E	4G#	8eL	4e
.	.	8dJ	.
=5	=5	=5	=5
4F#	4c#	4c#	4a
4G#	4B	4e	4b
4A	4A	4e	8cc#L
.	.	.	16ddL
.	.	.	16eeJJ
4D	4f#	4a	8ddL
.	.	.	8cc#J
=6	=6	=6	=6
2.E;	2.B;	2.g#;	2.b;
4E#	4G#	[4g#	4cc#
=7	=7	=7	=7
4F#	4c#	8g#]	4a
.	.	4f#	.
4G#	4B	.	4b
.	.	8enX	.
4A	8AL	4e	8cc#L
.	8BJ	.	8ddJ
4A#	4c#	4f#	4ee
=8	=8	=8	=8
2B	4c#	2f#	2dd
.	4B	.	.
4F#;	4A#;	4f#;	4cc#;
4A	4A	4e	8cc#L
.	.	.	8ddJ
=9	=9	=9	=9
4G#	4B	8eL	4ee
.	.	8f#J	.
8F#L	4B	4g#	4ee
8EJ	.	.	.
4D#	8BL	4f#	4b
.	8AJ	.	.
4E	4G#	4e	4cc#
=10	=10	=10	=10
4E	4c#	2f#	2a
4D#	4B	.	.
4E;	4B;	4e;	4g#;
8EL	8G#L	4c#	4e
8DJ	8F#J	.	.
=11	=11	=11	=11
4C#	4E	4e	4a
4BB	4D	8f#L	4b
.	.	8g#J	.
4AA	8EL	4a	4cc#
.	8F#J	.	.
4BB	4G#	8g#L	4dd
.	.	8f#J	.
=12	=12	=12	=12
8C#L	4A	4e	4cc#
8DJ	.	.	.
4E	4G#	8eL	4b
.	.	8dJ	.
2AA;	2E;	2c#;	2a;
==	==	==	==
*-	*-	*-	*-
!!!hum2abc: -Q ''
!!!title: @{PC#}. @{OTL@@DE}
!!!YOR1: 371 vierstimmige Choralges&auml;nge von Johann Sebastian Bach, 
!!!YOR2: 4th ed. by Alfred D&ouml;rffel (Leipzig: Breitkopf und H&auml;rtel, 
!!!YOR2: c.1875). 178 pp. Plate "V.A.10".  reprint: J.S. Bach, 371 Four-Part 
!!!YOR4: Chorales (New York: Associated Music Publishers, Inc., c.1940).
!!!SMS: B&H, 4th ed, Alfred D&ouml;rffel, c.1875, plate V.A.10
!!!EED:  Craig Stuart Sapp
!!!EEV:  2009/05/22
